packages/core/assets/Icons/arrow_circle_right_filled.svg

<svg viewBox="0 0 20 20" fill="none" xmlns="http://www.w3.org/2000/svg">
<path d="M10 18.3334C8.84724 18.3334 7.76391 18.1146 6.75002 17.6771C5.73613 17.2396 4.85419 16.6459 4.10419 15.8959C3.35419 15.1459 2.76044 14.2639 2.32294 13.25C1.88544 12.2361 1.66669 11.1528 1.66669 10C1.66669 8.84724 1.88544 7.76391 2.32294 6.75002C2.76044 5.73613 3.35419 4.85419 4.10419 4.10419C4.85419 3.35419 5.73613 2.76044 6.75002 2.32294C7.76391 1.88544 8.84724 1.66669 10 1.66669C11.1528 1.66669 12.2361 1.88544 13.25 2.32294C14.2639 2.76044 15.1459 3.35419 15.8959 4.10419C16.6459 4.85419 17.2396 5.73613 17.6771 6.75002C18.1146 7.76391 18.3334 8.84724 18.3334 10C18.3334 11.1528 18.1146 12.2361 17.6771 13.25C17.2396 14.2639 16.6459 15.1459 15.8959 15.8959C15.1459 16.6459 14.2639 17.2396 13.25 17.6771C12.2361 18.1146 11.1528 18.3334 10 18.3334ZM10.1667 10.8334L9.41669 11.5834C9.26391 11.7361 9.18752 11.9306 9.18752 12.1667C9.18752 12.4028 9.26391 12.5972 9.41669 12.75C9.56946 12.9028 9.76391 12.9792 10 12.9792C10.2361 12.9792 10.4306 12.9028 10.5834 12.75L12.75 10.5834C12.9167 10.4167 13 10.2222 13 10C13 9.7778 12.9167 9.58335 12.75 9.41669L10.5834 7.25002C10.4306 7.09724 10.2361 7.02085 10 7.02085C9.76391 7.02085 9.56946 7.09724 9.41669 7.25002C9.26391 7.4028 9.18752 7.59724 9.18752 7.83335C9.18752 8.06946 9.26391 8.26391 9.41669 8.41669L10.1667 9.16669H7.50002C7.26391 9.16669 7.06599 9.24655 6.90627 9.40627C6.74655 9.56599 6.66669 9.76391 6.66669 10C6.66669 10.2361 6.74655 10.434 6.90627 10.5938C7.06599 10.7535 7.26391 10.8334 7.50002 10.8334H10.1667Z" fill="currentColor"/>
</svg>

<svg xmlns="http://www.w3.org/2000/svg" width="20" height="20" fill="none" viewBox="0 0 20 20">
  <path fill="#201F1F" d="M10 18.333a8.115 8.115 0 0 1-3.25-.656 8.415 8.415 0 0 1-2.646-1.781 8.416 8.416 0 0 1-1.781-2.646A8.115 8.115 0 0 1 1.667 10c0-1.153.218-2.236.656-3.25a8.415 8.415 0 0 1 1.781-2.646A8.415 8.415 0 0 1 6.75 2.323 8.115 8.115 0 0 1 10 1.667c1.153 0 2.236.218 3.25.656a8.416 8.416 0 0 1 2.646 1.781 8.415 8.415 0 0 1 1.781 2.646 8.115 8.115 0 0 1 .656 3.25 8.115 8.115 0 0 1-.656 3.25 8.416 8.416 0 0 1-1.781 2.646 8.416 8.416 0 0 1-2.646 1.781 8.115 8.115 0 0 1-3.25.656Zm.167-7.5-.75.75a.79.79 0 0 0-.23.584c0 .236.077.43.23.583a.79.79 0 0 0 .583.23.79.79 0 0 0 .583-.23l2.167-2.167A.8.8 0 0 0 13 10a.8.8 0 0 0-.25-.583L10.583 7.25A.79.79 0 0 0 10 7.02a.79.79 0 0 0-.583.23.79.79 0 0 0-.23.583c0 .236.077.43.23.584l.75.75H7.5a.806.806 0 0 0-.594.24.806.806 0 0 0-.24.593c0 .236.08.434.24.594.16.16.358.24.594.24h2.667Z"/>
</svg>
